!!!COM: Claude Debussy
!!!CNT: Francais
!!!TXO: Francais
!!!OPR: Cinq Poe2mes de Baudelaire
!!!ONM: No. 4
!!!OTL: Recueillement
!!!LYR: Charles Baudelaire
!!!ENC: Jacob Pegg
!!!YOR: Claude Debussy: Songs 1880-1904, Edited by Rita Benton
!!!YOR: New York: Dover publications, inc., 1981
!!!YOR: ISBN 0-486-24131-9
!!!ODT: 1889/
!!NB: Vocal melody and text only encoded.
!!NB: First instance of melodic material only encoded.
**kern	**silbe
*clef G2	*
*k[f#c#g#d#]	*
*M4/4	*
*MM[lento]	*
!! created: 6/30/03 18:00
!! last edited: 7/10/03 14:12
!! time (min) : input notes 20, words 7.  check : notes 9, words 6.
!! total edit time: about 43 min.
=6	=6
2r	.
4r;	.
{4d#	{Sois
=7	=7
[4f#	sa-
8f#]}	-ge,}
8r	.
8r	.
{[8f#	{o^
12f#]	|
12f#	ma
12f#	Dou-
=8	=8
2.a}	-leur,}
4r	.
=9	=9
4r	.
{8d#	{et
8d#	tiens~
4d#	~toi
8d#	plus
8d#	tran-
=10	=10
4dn	-quil-
4cn}	-le;}
2r	.
=11	=11
1r	.
=12	=12
4r	.
8r	.
{8gn	{Tu
8gn	re/-
8gn	-cla-
8gn	-mais
8gn	le
=13	=13
4g#}	soir;}
4r	.
8r	.
{4g#	{il
8g#	des-
=14	=14
4gn}	-cend,}
4r	.
{4.gn	{le
8gn	voi-
=15	=15
*k[]	*
*M3/4	*
4g}	-ci!}
4r	.
4r	.
=16	=16
2.r	.
=17	=17
4r	.
2r	.
=18	=18
{4g	{Une
8g	at-
8g	-mos-
8g	-phe\-
8g	-re obs-
=19	=19
4b-	-cure
8b-	en-
8b-	-ve-
12b-	-lop-
12b-	-pe
12b-	la
=20	=20
4dd	vil-
4g}	-le,}
8r	.
{8g	{Aux
=21	=21
4.cc	uns
8g	por-
8a	-tant
8cc	la
=22	=22
4g}	paix,}
4r	.
{4c	{aux
=23	=23
4.e-	au-
8e-	-tres
8e-	le
8e-	sou-
=24	=24
4en}	-ci.}
4r	.
4r	.
=25	=25
4r	.
4r	.
{4g	{Pen-
=26	=26
4.dd#	-dant
8b	que
8g#	des
8d#	mor-
=27	=27
8gn	-tels
8gn	la
8gn	mul-
8gn	-ti-
8gn	-tu-
8gn	-de
=28	=28
(4g#	vi-
4d#)}	-le,}
4r	.
=29	=29
{8g#	{Sous
8g#	le
4g#	fouet
8g#	du
8g#	Plai-
=30	=30
[4b	-sir,
12b]	|
12g#	ce
12g#	bour-
12b	-reau
12cc#	sans
12dd	mer-
=31	=31
2dd#}	-ci,}
4r	.
=32	=32
{8.ee	{Va
16ee	cueil-
8b-	-lir
4b-	des
8b-	re-
=33	=33
12cc#	-mords
12cc#	dans
12cc#	la
4g	fe^-
8g	-te
8g	ser-
=34	=34
*M4/4	*
!! the meter change is written 2 measures later, however,
!!  both the accompaniment and the voice have 4 beats
!!  in measure 34, but three beats in m. 35. Oh, claude!
(2.f#	-vi-
4c#)}	-le,}
=35	=35
*M3/4	*
2.r	.
=36	=36
*M4/4	*
*k[f#c#g#d#]	*
2r	.
{4.c#	{Ma
8c#	Dou-
=37	=37
2e}	-leur,}
8r	.
{8e	{don-
12e	-ne
12e	moi
12e	la
=38	=38
!! g# lengthened to half note to correct timing. Honestly.
2g#}	main;}
8r	.
{8g#	{viens
8g#	par
8g#	i-
=39	=39
2b}	-ci,}
4r	.
{4a	{Loin
=40	=40
2b}	d'eux.}
2r	.
=41	=41
*M3/4	*
2.r	.
=42	=42
{4g#	{Vois
4b	se
4cc#	pen-
=43	=43
8ddn	-cher
8b-	les
8ccn	de/-
8ddn	-fun-
8ee	-tes
8ggn	An-
=44	=44
2gg#	-ne/-
4a#}	-es}
=45	=45
8r	.
{8dd#	{Sur
8b	les
8b	bal-
8g#	-cons
8g#	du
=46	=46
8f##	ciel,
8f##	en
8g#	ro-
8g#	-bes
8b	su-
8b	-ran-
=47	=47
[2ccn	-ne/-
8ccn]}	-es;}
8r	.
=48	=48
2.r	.
=49	=49
4r	.
4r	.
{4ccn	{Sur-
=50	=50
4.cc#	-gir
8cc#	du
8cc#	fond
8ff#	des
=51	=51
8ccn	eaux
8f#	le
8e	Re-
8dn	-gret
8cn	sou-
8dn	-ri-
=52	=52
2d#}	-ant;}
4r	.
=53	=53
{8e-	{Le
8e-	so-
4e-	-leil
8e-	mo-
8e-	-ri-
=54	=54
12fn	-bond
12fn	s'en-
12fn	-dor-
4gn	-mir
8a	sous
8a	une
=55	=55
2b	ar-
4b}	-che,}
=56	=56
*k[]	*
4cc	Et,
12r	.
12r	.
{12cc	{comme
12cc	un
12cc	long
12cc	lin-
=57	=57
2dd	-ceul
4dd	trai^-
=58	=58
4.cc	-nant
8cc	a\
8cc	l'O-
8cc	-ri-
=59	=59
2cc#}	-ent,}
{4cc#	{En-
=60	=60
*k[f#c#g#d#a#e#b#]	*
*M4/4	*
*MM[lento]	*
2ee#}	tends,}
4r	.
{4e#	{ma
=61	=61
2en	che\-
4d#}	-re,}
4r	.
=62	=62
8r	.
{8c#	{En-
8en	-tends
8fn	la
8f#	dou-
8an	-ce
8cc#	Nuit
8dd#	qui
=63	=63
(1gg#	mar-
=64	=64
2.g#)}	-che.}
4r	.
*-	*-
